UNB/img/gas-shop/visa.svg

<svg width="74" height="53" viewBox="0 0 74 53" fill="none" xmlns="http://www.w3.org/2000/svg">
<rect width="72.9723" height="52.4143" transform="translate(0.675781)" fill="#F0F7FF"/>
<path fill-rule="evenodd" clip-rule="evenodd" d="M23.7472 34.6342H19.3265L16.0116 21.3868C15.8542 20.7774 15.5201 20.2387 15.0287 19.9848C13.8023 19.3467 12.4508 18.8389 10.9766 18.5827V18.0727H18.098C19.0808 18.0727 19.818 18.8389 19.9408 19.7286L21.6608 29.2845L26.0794 18.0727H30.3772L23.7472 34.6342ZM32.8356 34.6342H28.6606L32.0985 18.0727H36.2734L32.8356 34.6342ZM41.6738 22.6608C41.7967 21.7688 42.5338 21.2588 43.3938 21.2588C44.7452 21.1307 46.2174 21.3868 47.4459 22.0227L48.1831 18.4569C46.9545 17.9469 45.6031 17.6908 44.3767 17.6908C40.3245 17.6908 37.376 19.9848 37.376 23.1686C37.376 25.5907 39.4645 26.8624 40.9388 27.6286C42.5338 28.3925 43.1481 28.9025 43.0252 29.6665C43.0252 30.8124 41.7967 31.3224 40.5702 31.3224C39.096 31.3224 37.6217 30.9404 36.2724 30.3024L35.5353 33.8703C37.0095 34.5062 38.6045 34.7623 40.0788 34.7623C44.6224 34.8882 47.4459 32.5964 47.4459 29.1564C47.4459 24.8245 41.6738 24.5706 41.6738 22.6608ZM62.0554 34.6342L58.7404 18.0727H55.1797C54.4425 18.0727 53.7054 18.5827 53.4597 19.3467L47.3211 34.6342H51.619L52.4768 32.2144H57.7575L58.2489 34.6342H62.0554ZM55.7982 22.5324L57.0246 28.7742H53.5868L55.7982 22.5324Z" fill="#172B85"/>
</svg>

<svg width="74" height="53" fill="none" xmlns="http://www.w3.org/2000/svg"><path fill="#F0F7FF" d="M.676 0h72.972v52.414H.676z"/><path fill-rule="evenodd" clip-rule="evenodd" d="M23.747 34.634h-4.42l-3.315-13.247c-.158-.61-.492-1.148-.983-1.402-1.227-.638-2.578-1.146-4.052-1.402v-.51h7.121c.983 0 1.72.766 1.843 1.656l1.72 9.556 4.418-11.212h4.298l-6.63 16.561zm9.089 0H28.66l3.438-16.561h4.174l-3.437 16.561zm8.838-11.973c.123-.892.86-1.402 1.72-1.402 1.351-.128 2.823.128 4.052.764l.737-3.566a10.15 10.15 0 00-3.806-.766c-4.053 0-7.001 2.294-7.001 5.478 0 2.422 2.089 3.693 3.563 4.46 1.595.763 2.21 1.273 2.086 2.037 0 1.146-1.228 1.656-2.455 1.656-1.474 0-2.948-.382-4.298-1.02l-.737 3.568c1.475.636 3.07.892 4.544.892 4.543.126 7.367-2.166 7.367-5.606 0-4.331-5.772-4.585-5.772-6.495zm20.381 11.973L58.74 18.073h-3.56c-.737 0-1.475.51-1.72 1.274l-6.14 15.287h4.298l.858-2.42h5.28l.492 2.42h3.806zm-6.257-12.102l1.227 6.242h-3.438l2.211-6.242z" fill="#172B85"/></svg>
